img/sprites/intermediate-svg/twitter.svg

<svg width="25" height="24" viewBox="0 0 25 24" fill="none" xmlns="http://www.w3.org/2000/svg">
<path d="M22 6.894C21.3287 7.21552 20.6114 7.43076 19.874 7.532C20.6645 7.00602 21.2403 6.21415 21.497 5.3C20.784 5.766 19.997 6.094 19.157 6.278C18.48 5.488 17.515 5 16.462 5C14.419 5 12.774 6.814 12.774 9.038C12.774 9.358 12.799 9.666 12.859 9.958C9.791 9.795 7.077 8.186 5.253 5.736C4.92085 6.36465 4.74748 7.065 4.748 7.776C4.748 9.175 5.406 10.414 6.388 11.132C5.79826 11.1132 5.22352 10.9416 4.72 10.634V10.679C4.72 12.641 6 14.27 7.677 14.645C7.377 14.735 7.049 14.778 6.709 14.778C6.473 14.778 6.234 14.764 6.01 14.709C6.489 16.309 7.845 17.484 9.459 17.522C8.203 18.596 6.609 19.244 4.883 19.244C4.58 19.244 4.29 19.229 4 19.188C5.65247 20.3664 7.63142 20.9998 9.661 21C16.451 21 20.164 14.846 20.164 9.512C20.164 9.334 20.158 9.162 20.15 8.99C20.8881 8.40874 21.5149 7.69861 22 6.894V6.894Z" fill="#2DE58D"/>
</svg>

<?xml version="1.0" encoding="utf-8"?><svg width="25" height="24" fill="none" xmlns="http://www.w3.org/2000/svg" viewBox="0 0 25 24"><path d="M22 6.894a7.184 7.184 0 0 1-2.126.638A3.97 3.97 0 0 0 21.497 5.3c-.713.466-1.5.794-2.34.978C18.48 5.488 17.515 5 16.462 5c-2.043 0-3.688 1.814-3.688 4.038 0 .32.025.628.085.92-3.068-.163-5.782-1.772-7.606-4.222a4.36 4.36 0 0 0-.505 2.04c0 1.399.658 2.638 1.64 3.356a3.408 3.408 0 0 1-1.668-.498v.045c0 1.962 1.28 3.591 2.957 3.966-.3.09-.628.133-.968.133-.236 0-.475-.014-.699-.069.479 1.6 1.835 2.775 3.449 2.813-1.256 1.074-2.85 1.722-4.576 1.722-.303 0-.593-.015-.883-.056A9.752 9.752 0 0 0 9.661 21c6.79 0 10.503-6.154 10.503-11.488 0-.178-.006-.35-.014-.522A7.782 7.782 0 0 0 22 6.894z" fill="#FFD788"/></svg>
